svgs/light/cactus.svg

<svg xmlns="http://www.w3.org/2000/svg" viewBox="0 0 512 512"><!--! Font Awesome Pro 6.6.0 by @fontawesome - https://fontawesome.com License - https://fontawesome.com/license (Commercial License) Copyright 2024 Fonticons, Inc. --><path d="M320 464c0 8.8-7.2 16-16 16l-96 0c-8.8 0-16-7.2-16-16l0-144 0-32 0-32 0-32 0-128c0-35.3 28.7-64 64-64s64 28.7 64 64l0 256 0 32 0 32 0 32 0 16zm32-112l0-256c0-53-43-96-96-96s-96 43-96 96l0 128-48 0c-8.8 0-16-7.2-16-16l0-64c0-26.5-21.5-48-48-48S0 117.5 0 144l0 64c0 61.9 50.1 112 112 112l48 0 0 144c0 26.5 21.5 48 48 48l96 0c26.5 0 48-21.5 48-48l0-16 48 0c61.9 0 112-50.1 112-112l0-64c0-26.5-21.5-48-48-48s-48 21.5-48 48l0 64c0 8.8-7.2 16-16 16l-48 0zm0 32l48 0c26.5 0 48-21.5 48-48l0-64c0-8.8 7.2-16 16-16s16 7.2 16 16l0 64c0 44.2-35.8 80-80 80l-48 0 0-32zM112 288c-44.2 0-80-35.8-80-80l0-64c0-8.8 7.2-16 16-16s16 7.2 16 16l0 64c0 26.5 21.5 48 48 48l48 0 0 32-48 0zM256 144a16 16 0 1 0 -32 0 16 16 0 1 0 32 0zm16 240a16 16 0 1 0 0-32 16 16 0 1 0 0 32z"/></svg>

<svg xmlns="http://www.w3.org/2000/svg" viewBox="0 0 512 512"><!--! Font Awesome Pro 6.4.2 by @fontawesome - https://fontawesome.com License - https://fontawesome.com/license (Commercial License) Copyright 2023 Fonticons, Inc. --><path d="M320 464c0 8.8-7.2 16-16 16H208c-8.8 0-16-7.2-16-16V320 288 256 224 96c0-35.3 28.7-64 64-64s64 28.7 64 64V352v32 32 32 16zm32-112V96c0-53-43-96-96-96s-96 43-96 96V224H112c-8.8 0-16-7.2-16-16V144c0-26.5-21.5-48-48-48S0 117.5 0 144v64c0 61.9 50.1 112 112 112h48V464c0 26.5 21.5 48 48 48h96c26.5 0 48-21.5 48-48V448h48c61.9 0 112-50.1 112-112V272c0-26.5-21.5-48-48-48s-48 21.5-48 48v64c0 8.8-7.2 16-16 16H352zm0 32h48c26.5 0 48-21.5 48-48V272c0-8.8 7.2-16 16-16s16 7.2 16 16v64c0 44.2-35.8 80-80 80H352V384zM112 288c-44.2 0-80-35.8-80-80V144c0-8.8 7.2-16 16-16s16 7.2 16 16v64c0 26.5 21.5 48 48 48h48v32H112zM256 144a16 16 0 1 0 -32 0 16 16 0 1 0 32 0zm16 240a16 16 0 1 0 0-32 16 16 0 1 0 0 32z"/></svg>
